X: 484
T: Come Hither to Go Yonder
C:Bill Monroe
B: jims roots
M:C|
L:1/8
Q: 1/4=100
K:C
V:1 A2 AA DCA,G, | "E"CCCC B,C B,G, | "A"A,2 A,A, A,A,A,A, | A,4 (G[A)A
V:2 [e2A2
 AA AE ED | "E"C2 [A2E2] B,2 [A2E2] | "A"[EA,][E2A,2] [EA,] [EA,][EA,][E2A,2] | [A,2A2E2] z2 ag ec||
V:AA 
[AA]:|
% abcbook-tune_id 6298c245abfb4f3eedbbd2de


% abcbook-boost 0
% abcbook-tablature 
% abcbook-transpose 
% abcbook-lastupdated 1654178373784
% abcbook-soundfonts 
% abcbook-repeats 1


